**kern	**kern	**dynam
*part1	*part1	*part1
*staff2	*staff1	*
*I"Piano	*	*
*clefF4	*clefG2	*
*k[b-e-a-d-]	*k[b-e-a-d-]	*
=1	=1	=1
4E-^ 4A- 4c	4e- 4a- 4ee-	.
8E-L 8A-	8cL 8e- 8cc	.
8E-J 8A-	8cJ 8e- 8cc	.
=	=	=
*	*^	*
4E-^ 4G	(8dd-L	4d- 4e-	.
.	8b-)	.	.
8E-L 8A-	8a-'	8d-L 8e-	.
8E-J 8B-	8g'J	8d-J 8e-	.
*	*v	*v	*
=	=	=
4AA- 4E- 4A-	4c 4e- 4a-	.
8r	8r	.
(8c	(8a-	pp
=	=	=
4d-	8.b-L	.
.	16dd-K	.
8B-L	8f	.
8e-J)	8gJ)	.
=	=	=
(4c	(8.a-L	.
.	16ccK	.
8A-L	8e-	.
8cJ)	8a-J)	.
=	=	=
(4d-	(8.b-L	.
.	16dd-K	.
8B-L	8f	.
8e-J)	8gJ)	.
=	=	=
(4c	(8.a-L	.
.	16ccK	.
8A-)	8e-)	.
*clefG2	*	*
(8c'	(8e-'J 8ee-	<
=	=	=
*-	*-	*-
!!!system-decoration: {(s1,s2)}
